static/assets/infographics/Icon_devs.svg

<svg id='Layer_1' xmlns='http://www.w3.org/2000/svg' viewBox='0 0 59.1 52'><style>.st0{fill:#6d6e71}</style><path class='st0' d='M24.7 31.4V35l-12.8-5.6v-3.1l12.8-5.6v3.6l-9 3.4 9 3.7zm0 0M32.6 20.7L29 35.4c-.1.5-.2.9-.3 1.1-.1.3-.2.5-.4.7-.2.2-.5.2-.8.2-.9 0-1.3-.4-1.3-1.1 0-.2.1-.7.3-1.5L30 20.1c.2-.8.4-1.3.5-1.6.2-.3.5-.4 1-.4.4 0 .7.1 1 .3.2.2.3.5.3.8.1.3 0 .8-.2 1.5zm0 0M47.2 29.4L34.4 35v-3.6l9-3.5-9-3.5v-3.6l12.8 5.5v3.1zm0 0'/><path class='st0' d='M55.5 0h-52C1.6 0 0 1.6 0 3.5v44.9c0 2 1.6 3.5 3.5 3.5h52c2 0 3.5-1.6 3.5-3.5V3.5c.1-1.9-1.5-3.5-3.5-3.5zm-8.8 2.4c1.3 0 2.3 1 2.3 2.3 0 1.3-1 2.4-2.3 2.4-1.3 0-2.4-1.1-2.4-2.4 0-1.3 1.1-2.3 2.4-2.3zm-6.5 0c1.3 0 2.4 1.1 2.4 2.4 0 1.3-1.1 2.4-2.4 2.4-1.3 0-2.4-1.1-2.4-2.4 0-1.4 1.1-2.4 2.4-2.4zm15.3 46h-52v-39h52v39zM53.1 7.1c-1.3 0-2.4-1.1-2.4-2.4 0-1.3 1.1-2.4 2.4-2.4 1.3 0 2.4 1.1 2.4 2.4 0 1.3-1 2.4-2.4 2.4zm0 0'/></svg>

<?xml version="1.0" encoding="utf-8"?>
<!-- Generator: Adobe Illustrator 19.2.0, SVG Export Plug-In . SVG Version: 6.00 Build 0)  -->
<svg version="1.1" id="Layer_1" xmlns="http://www.w3.org/2000/svg" xmlns:xlink="http://www.w3.org/1999/xlink" x="0px" y="0px"
	 viewBox="0 0 59.1 52" style="enable-background:new 0 0 59.1 52;" xml:space="preserve">
<style type="text/css">
	.st0{fill:#6D6E71;}
</style>
<g>
	<path class="st0" d="M24.7,31.4V35l-12.8-5.6v-3.1l12.8-5.6v3.6l-9,3.4L24.7,31.4z M24.7,31.4"/>
	<path class="st0" d="M32.6,20.7L29,35.4c-0.1,0.5-0.2,0.9-0.3,1.1c-0.1,0.3-0.2,0.5-0.4,0.7c-0.2,0.2-0.5,0.2-0.8,0.2
		c-0.9,0-1.3-0.4-1.3-1.1c0-0.2,0.1-0.7,0.3-1.5L30,20.1c0.2-0.8,0.4-1.3,0.5-1.6c0.2-0.3,0.5-0.4,1-0.4c0.4,0,0.7,0.1,1,0.3
		c0.2,0.2,0.3,0.5,0.3,0.8C32.9,19.5,32.8,20,32.6,20.7L32.6,20.7z M32.6,20.7"/>
	<path class="st0" d="M47.2,29.4L34.4,35v-3.6l9-3.5l-9-3.5v-3.6l12.8,5.5V29.4z M47.2,29.4"/>
	<path class="st0" d="M55.5,0h-52C1.6,0,0,1.6,0,3.5v44.9c0,2,1.6,3.5,3.5,3.5h52c2,0,3.5-1.6,3.5-3.5V3.5C59.1,1.6,57.5,0,55.5,0
		L55.5,0z M46.7,2.4C48,2.4,49,3.4,49,4.7C49,6,48,7.1,46.7,7.1c-1.3,0-2.4-1.1-2.4-2.4C44.3,3.4,45.4,2.4,46.7,2.4L46.7,2.4z
		 M40.2,2.4c1.3,0,2.4,1.1,2.4,2.4c0,1.3-1.1,2.4-2.4,2.4c-1.3,0-2.4-1.1-2.4-2.4C37.8,3.4,38.9,2.4,40.2,2.4L40.2,2.4z M55.5,48.4
		h-52v-39h52V48.4z M53.1,7.1c-1.3,0-2.4-1.1-2.4-2.4c0-1.3,1.1-2.4,2.4-2.4c1.3,0,2.4,1.1,2.4,2.4C55.5,6,54.5,7.1,53.1,7.1
		L53.1,7.1z M53.1,7.1"/>
</g>
</svg>
